X:111
T:I would I were a little bird - unattributed
%%VWML:SBG-1-2-422-0
F:http://www.vwml.org/record/SBG/1/2/422
Z:Original Sibelius transcriptions by M. & S. Graebe
M:4/4
I:linebreak $
K:F
V:1 treble nm="P1"
V:1
 AG | F2 GA C3 D | (FE) (FG) A2 (GF) | B2 (cd) (cA) (GF) | G6 (AG) | F2 (GA) C3 D |$ %6
 (FE) (FG) f2 ed | cd cA G2 (AG) | F6 (cd) | e2 (dc) A3 =B | (dc) (de) f2 (ed) |$ c2 A2 _B2 (dc) | %12
 G6 (AG) | F2 (GA) C3 D | (FE) (FG) A2 (GF) | d2 c2 G2 BA |$ F6 |"^chorus, last line repeated" cd | %18
 e2 f2 e2 dc | d2 cA G2 FG | A2 B2 c2 BG | F6 x2 | %22
T:I would I were a little bird - single line above Houghton's tune
F:http://www.vwml.org/record/SBG/1/2/422
Z:Original Sibelius transcriptions by M. & S. Graebe
M:2/4
I:linebreak $
K:G
V:1 treble nm="P1" snm="Voice"
V:1
 D | B2 Ad | c2 Ac | B G z G | A2 cB | A2 FA | G2 z A | G2 FA | G2 z2 | %9
T:I would I were a little bird - Houghton
%%VWML:SBG-1-2-422-0
F:http://www.vwml.org/record/SBG/1/2/422
Z:Original Sibelius transcriptions by M. & S. Graebe
M:4/4
I:linebreak $
K:G
V:1 treble nm="P1"
V:1
 D/ D/ | G G G G | d e2 d | c B G G | G3 G/B/ | G G G G |$ d e2 d | c B G G | G3 G/B/ | e d e f | %10
 g d2 G |$ B d c/B/A/G/ | E3 D | G G G B | d e2 d | c B G G | G3 x | %17

